public/icons/scorm_package.svg

<svg xmlns="http://www.w3.org/2000/svg" width="108" height="96"><path d="M39.667 21.667C37.712 23.621 40.605 24 57.5 24c16.74 0 21.427-.663 16.918-2.393-2.158-.828-33.918-.774-34.751.06m-8 8c-.367.366-.667 1.941-.667 3.5C31 36 31 36 57.5 36S84 36 84 33.107c0-1.716-.644-3.14-1.582-3.5-2.162-.83-49.918-.773-50.751.06M90 37.845C90 41 90 41 57 41s-33 0-33-2.655c0-2.592-.048-2.612-2-.845-1.186 1.074-2 3.08-2 4.931 0 4.932 6.007 37.96 7.106 39.069 1.06 1.07 53.701 2.016 57.609 1.035 1.225-.307 2.672-1.39 3.216-2.407 1.443-2.694 7.237-38.023 6.577-40.101-.307-.97-1.448-2.567-2.534-3.55C90.048 34.734 90 34.767 90 37.845M41 55.566C41 63.918 41.153 64 56.835 64c9.373 0 14.148-.383 14.965-1.2.66-.66 1.2-3.585 1.2-6.5 0-4.633-.252-5.3-2-5.3-1.667 0-2 .667-2 4 0 4 0 4-11.5 4S46 59 46 55c0-3.6-.25-4-2.5-4-2.302 0-2.5.362-2.5 4.566" fill-rule="evenodd"/></svg>

<svg xmlns="http://www.w3.org/2000/svg" width="108" height="96" viewBox="0 0 108 96" version="1.1">
	<path d="M 39.667 21.667 C 37.712 23.621, 40.605 24, 57.500 24 C 74.240 24, 78.927 23.337, 74.418 21.607 C 72.260 20.779, 40.500 20.833, 39.667 21.667 M 31.667 29.667 C 31.300 30.033, 31 31.608, 31 33.167 C 31 36, 31 36, 57.500 36 C 84 36, 84 36, 84 33.107 C 84 31.391, 83.356 29.967, 82.418 29.607 C 80.256 28.777, 32.500 28.834, 31.667 29.667 M 90 37.845 C 90 41, 90 41, 57 41 C 24 41, 24 41, 24 38.345 C 24 35.753, 23.952 35.733, 22 37.500 C 20.814 38.574, 20 40.580, 20 42.431 C 20 47.363, 26.007 80.391, 27.106 81.500 C 28.166 82.570, 80.807 83.516, 84.715 82.535 C 85.940 82.228, 87.387 81.145, 87.931 80.128 C 89.374 77.434, 95.168 42.105, 94.508 40.027 C 94.201 39.057, 93.060 37.460, 91.974 36.477 C 90.048 34.734, 90 34.767, 90 37.845 M 41 55.566 C 41 63.918, 41.153 64, 56.835 64 C 66.208 64, 70.983 63.617, 71.800 62.800 C 72.460 62.140, 73 59.215, 73 56.300 C 73 51.667, 72.748 51, 71 51 C 69.333 51, 69 51.667, 69 55 C 69 59, 69 59, 57.500 59 C 46 59, 46 59, 46 55 C 46 51.400, 45.750 51, 43.500 51 C 41.198 51, 41 51.362, 41 55.566 " stroke="none" fill="black" fill-rule="evenodd"/>
</svg>
